X: 1
T: After You've Gone
O: Fiddle Hell 2021 - March Marxer
R:
S: Fiddle Hell Online 2021-11-__
Z: 2021 John Chambers <jc:trillian.mit.edu>
M: C
L: 1/4
K: G
[|\
"G6"Bd ef- | f4 | ze fe | f e3 |\
"d6"FA B^c- | c4 | "B7"zB ^cB | ^c B3 |
"E7"B f2 f- | f4 | "A7"A e2 e- | e4 |\
"D6"zA BA | dA BA | "D7"d F2 A- | A4 |
"G6"Bd ef- | f4 | "Gm"ze fe | f e3 |\
"D6"FA B^c- | ^c4 | "B7"zB ^cB | ^c B3 |
"Em"g4 | "B7"f4 | "Em"e^A Bf- | "Gm"f2 e2 |\
"D7"z=f ^fd | "F#7"e^d e^c | "Bm7"d=F ^F^c | "E7"c2 B2 |
"D6"AB df- | f4 | "A7"zG AB | e2 f2 |\
"G6"d4- | d4- | "G7"d4- | d4 |]
